!!!OTL: Der Maedchenmoerder (Halewijn - Ulinger) Es zogen drei Saenger wohl ueber den Rhein,
!!!ARE: Europa, Mitteleuropa, Deutschland (BRD), Hessen, Ziegenhain, Willingshausen
!!!YOR: 2, S. 85
!!    1926 aufgezeichnet
!!!SCT: Q0041G
!!!YEM: Copyright 1995, estate of Helmut Schaffrath.
**kern
*ICvox
*Ivox
*M3/4
*k[f#]
*G:
{4d
=1
4.g
8g
4g
=2
4e
4f#
4g
=3
4a
4.dd
8cc
=4
4b
4r}
{4d
=5
4.g
8g
4g
=6
4e
4f#
4g
=7
4a
4.dd
8cc
=8
4b
4r}
{8b
8cc
=9
4dd
4b
4dd
=10
4dd
4b
4ee
=11
2dd
4b
=12
4g
4r}
{8g
8g
=13
4ee
4ee
8dd
8dd
=14
4cc
4cc
4a
=15
2dd
4cc
=16
4b
4r}
{8b
8cc
=17
4dd
4b
4dd
=18
4dd
4b
4ee
=19
2dd
4b
=20
4g
4r}
{8g
8g
=21
4ee
4ee
8dd
8dd
=22
4cc
4cc
4a
=23
2dd
4cc
=24
4b
4r}
==
!!!AGN: Ballade, Verfuehrung, Mord, Mordversuch bzw. Rache
!!!ONB: ESAC (Essen Associative Code) Database: BALLADE
!!!AMT: simple triple
!!!AIN: vox
!!!EED: Helmut Schaffrath
!!!EEV: 1.0
*-
